images/skills/4-skills-internet-db-lg.svg

<svg width="420" height="325" viewBox="0 0 420 325" xmlns="http://www.w3.org/2000/svg"><title>internet-database</title><desc>Created with Sketch.</desc><g fill="#fff"><path d="M210.5 206.116c34.82 0 73.5-11.49 73.5-28.34v-20.68c-13 12.254-40.594 20.68-73.5 20.68s-60.5-8.426-73.5-20.68v20.68c0 16.85 38.68 28.34 73.5 28.34"/><path d="M210.52 136.797c34.82 0 73.466-11.872 73.466-28.723 0-16.85-38.646-28.34-73.465-28.34-34.818 0-73.464 11.49-73.464 28.34s38.646 28.723 73.465 28.723"/><path d="M210.5 169.35c34.82 0 73.5-11.49 73.5-28.34v-16.468c-13 12.255-40.594 20.298-73.5 20.298s-60.5-8.043-73.5-20.298v16.468c0 16.85 38.68 28.34 73.5 28.34"/><path d="M210.5 242.882c34.82 0 73.5-11.49 73.5-28.34v-20.68c-13 12.254-40.594 20.68-73.5 20.68s-60.5-8.426-73.5-20.68v20.68c0 16.85 38.68 28.34 73.5 28.34"/><path d="M215 0v11.082l124.494 71.64c1.55.894 2.506 2.546 2.506 4.335v146.167c0 1.79-.945 3.44-2.495 4.334L212.51 310.642c-1.544.888-3.442.888-4.986 0l-127.01-73.084c-1.55-.893-2.514-2.545-2.514-4.334V87.057c0-1.79.967-3.442 2.518-4.334l110.264-63.42c2.394-1.378 5.452-.554 6.83 1.84 1.376 2.394.543 5.45-1.85 6.827L88 89.95v140.383l122 70.206 122-70.207V89.95L207.506 18.306c-1.55-.893-2.506-2.545-2.506-4.334V0H0v325h420V0H215zm-4.5 71.308c45.916 0 81.5 16.468 81.5 36.766v106.468c0 20.68-35.584 36.766-81.5 36.766-45.915 0-81.5-16.086-81.5-36.766V108.074c0-20.298 35.585-36.766 81.5-36.766z"/></g></svg>

<?xml version="1.0" encoding="UTF-8" standalone="no"?>
<svg width="420px" height="325px" viewBox="0 0 420 325" version="1.1" xmlns="http://www.w3.org/2000/svg" xmlns:xlink="http://www.w3.org/1999/xlink" xmlns:sketch="http://www.bohemiancoding.com/sketch/ns">
    <!-- Generator: Sketch 3.2.2 (9983) - http://www.bohemiancoding.com/sketch -->
    <title>internet-database</title>
    <desc>Created with Sketch.</desc>
    <defs></defs>
    <g id="Large" stroke="none" stroke-width="1" fill="none" fill-rule="evenodd" sketch:type="MSPage">
        <g id="Group" sketch:type="MSLayerGroup" fill="#FFFFFF">
            <g id="internet-database" sketch:type="MSShapeGroup">
                <path d="M210.5,206.116 C245.319,206.116 284,194.627 284,177.776 L284,157.095 C271,169.35 243.406,177.776 210.5,177.776 C177.594,177.776 150,169.35 137,157.095 L137,177.776 C137,194.627 175.681,206.116 210.5,206.116" id="Fill-1"></path>
                <path d="M210.521,136.797 C245.34,136.797 283.986,124.925 283.986,108.074 C283.986,91.223 245.34,79.733 210.521,79.733 C175.702,79.733 137.056,91.223 137.056,108.074 C137.056,124.925 175.702,136.797 210.521,136.797" id="Fill-2"></path>
                <path d="M210.5,169.35 C245.319,169.35 284,157.861 284,141.01 L284,124.542 C271,136.797 243.406,144.84 210.5,144.84 C177.594,144.84 150,136.797 137,124.542 L137,141.01 C137,157.861 175.681,169.35 210.5,169.35" id="Fill-3"></path>
                <path d="M210.5,242.882 C245.319,242.882 284,231.393 284,214.542 L284,193.861 C271,206.116 243.406,214.542 210.5,214.542 C177.594,214.542 150,206.116 137,193.861 L137,214.542 C137,231.393 175.681,242.882 210.5,242.882" id="Fill-4"></path>
                <path d="M215,0 L215,11.082 L339.494,82.723 C341.044,83.616 342,85.268 342,87.057 L342,233.224 C342,235.013 341.055,236.665 339.505,237.558 L212.51,310.642 C210.966,311.53 209.068,311.53 207.524,310.642 L80.515,237.558 C78.965,236.665 78,235.013 78,233.224 L78,87.057 C78,85.268 78.967,83.615 80.518,82.723 L190.782,19.302 C193.176,17.925 196.234,18.749 197.611,21.143 C198.988,23.537 198.155,26.593 195.761,27.97 L88,89.949 L88,230.333 L210,300.539 L332,230.333 L332,89.949 L207.506,18.307 C205.956,17.414 205,15.762 205,13.973 L205,0 L0,0 L0,325 L420,325 L420,0 L215,0 L215,0 Z M210.5,71.308 C256.416,71.308 292,87.776 292,108.074 L292,214.542 C292,235.222 256.416,251.308 210.5,251.308 C164.585,251.308 129,235.222 129,214.542 L129,108.074 C129,87.776 164.585,71.308 210.5,71.308 L210.5,71.308 Z" id="Fill-5"></path>
            </g>
        </g>
    </g>
</svg>
